img/case-studies/research-app-white.svg

<svg width="536" height="536" fill="none" xmlns="http://www.w3.org/2000/svg"><path d="M385.056 178.881l2.432-2.517-1.018-.983h-1.414v3.5zm17.745 17.148l-2.432 2.516 2.432-2.516zm7.382-17.148v-3.5h-3.5v3.5h3.5zm-199.878-58.382c0-5.522 4.476-9.999 9.999-9.999v-7c-9.389 0-16.999 7.611-16.999 16.999h7zm0 44.883v-44.883h-7v44.883h7zm9.999 9.999c-5.523 0-9.999-4.476-9.999-9.999h-7c0 9.389 7.61 16.999 16.999 16.999v-7zm164.752 0H220.304v7h164.752v-7zm20.177 18.131l-17.745-17.148-4.864 5.034 17.745 17.147 4.864-5.033zm1.45-.51a.69.69 0 0 1-.118.424.835.835 0 0 1-.365.276.917.917 0 0 1-.5.062.867.867 0 0 1-.467-.252l-4.864 5.033c4.878 4.714 13.314 1.491 13.314-5.543h-7zm0-14.121v14.121h7v-14.121h-7zm26.882-3.5h-23.382v7h23.382v-7zm9.999-9.999c0 5.523-4.476 9.999-9.999 9.999v7c9.389 0 16.999-7.61 16.999-16.999h-7zm0-44.883v44.883h7v-44.883h-7zm-9.999-9.999c5.523 0 9.999 4.477 9.999 9.999h7c0-9.388-7.61-16.999-16.999-16.999v7zm-213.261 0h213.261v-7H220.304v7zM151.54 304.592l-2.432-2.517 1.017-.983h1.415v3.5zm-17.746 17.147l2.432 2.517-2.432-2.517zm-7.382-17.147v-3.5h3.5v3.5h-3.5zm199.879-58.382c0-5.523-4.477-9.999-10-9.999v-7c9.389 0 17 7.61 17 16.999h-7zm0 44.883V246.21h7v44.883h-7zm-10 9.999c5.523 0 10-4.477 10-9.999h7c0 9.388-7.611 16.999-17 16.999v-7zm-164.751 0h164.751v7H151.54v-7zm-20.178 18.13l17.746-17.147 4.864 5.034-17.746 17.147-4.864-5.034zm-1.45-.51c0 .215.058.339.118.424a.826.826 0 0 0 .366.277c.171.07.347.087.499.062a.866.866 0 0 0 .467-.253l4.864 5.034c-4.877 4.713-13.314 1.491-13.314-5.544h7zm0-14.12v14.12h-7v-14.12h7zm-26.882-3.5h23.382v7H103.03v-7zm-10-9.999c0 5.522 4.478 9.999 10 9.999v7c-9.388 0-17-7.611-17-16.999h7zm0-44.883v44.883h-7V246.21h7zm10-9.999c-5.522 0-10 4.476-10 9.999h-7c0-9.389 7.612-16.999 17-16.999v7zm213.261 0H103.03v-7h213.261v7z" fill="#F6F6F5"/><circle r="40.4" transform="matrix(-1 0 0 1 130.9 385.447)" stroke="#F6F6F5" stroke-width="7"/><path d="M106.826 415.101v-4.42a12.213 12.213 0 0 1 12.214-12.214h24.428c3.239 0 6.346 1.287 8.636 3.578a12.211 12.211 0 0 1 3.578 8.636v4.42" stroke="#F6F6F5" stroke-width="7" stroke-linecap="round" stroke-linejoin="round"/><path d="M106.405 414.709v-4.42a12.215 12.215 0 0 1 12.214-12.214h24.428a12.217 12.217 0 0 1 12.214 12.214v4.42" fill="#F6F6F5"/><path d="M106.405 414.709v-4.42a12.215 12.215 0 0 1 12.214-12.214h24.428a12.217 12.217 0 0 1 12.214 12.214v4.42l-2.453 4.458-10.968 4.219-10.546 1.687-10.124-1.687-7.593-2.953-7.172-5.724z" fill="#F6F6F5"/><path d="M106.405 414.709v-4.42a12.215 12.215 0 0 1 12.214-12.214h24.428a12.217 12.217 0 0 1 12.214 12.214v4.42" stroke="#F6F6F5" stroke-width="7" stroke-linecap="round" stroke-linejoin="round"/><path d="M106.405 414.709v-4.42a12.215 12.215 0 0 1 12.214-12.214h24.428a12.217 12.217 0 0 1 12.214 12.214v4.42l-2.453 4.458-10.968 4.219-10.546 1.687-10.124-1.687-7.593-2.953-7.172-5.724z" stroke="#F6F6F5" stroke-width="7" stroke-linecap="round" stroke-linejoin="round"/><path d="M131.254 386.253c-6.746 0-12.214-5.468-12.214-12.214 0-6.745 5.468-12.214 12.214-12.214 6.745 0 12.214 5.469 12.214 12.214 0 6.746-5.469 12.214-12.214 12.214z" fill="#F6F6F5" stroke="#F6F6F5" stroke-width="7" stroke-linecap="round" stroke-linejoin="round"/><path d="M381.45 292.373v-4.42a12.214 12.214 0 0 1 12.214-12.214h24.428a12.214 12.214 0 0 1 12.214 12.214v4.42" fill="#F6F6F5"/><path d="M381.45 292.373v-4.42a12.214 12.214 0 0 1 12.214-12.214h24.428a12.214 12.214 0 0 1 12.214 12.214v4.42l-3.578 3.193-9.843 5.484-10.546 1.687-10.125-1.687-7.593-2.953-7.171-5.724z" fill="#F6F6F5"/><path d="M381.45 292.373v-4.42a12.214 12.214 0 0 1 12.214-12.214h24.428a12.214 12.214 0 0 1 12.214 12.214v4.42" stroke="#F6F6F5" stroke-width="7" stroke-linecap="round" stroke-linejoin="round"/><path d="M381.45 292.373v-4.42a12.214 12.214 0 0 1 12.214-12.214h24.428a12.214 12.214 0 0 1 12.214 12.214v4.42l-3.578 3.193-9.843 5.484-10.546 1.687-10.125-1.687-7.593-2.953-7.171-5.724z" stroke="#F6F6F5" stroke-width="7" stroke-linecap="round" stroke-linejoin="round"/><circle r="40.4" transform="matrix(-1 0 0 1 405.1 262.267)" stroke="#F6F6F5" stroke-width="7"/><path d="M381.026 291.921v-4.42c0-3.239 1.287-6.346 3.578-8.636a12.211 12.211 0 0 1 8.636-3.578h24.428a12.213 12.213 0 0 1 12.214 12.214v4.42" stroke="#F6F6F5" stroke-width="7" stroke-linecap="round" stroke-linejoin="round"/><path d="M405.454 263.074c-6.745 0-12.214-5.469-12.214-12.214 0-6.746 5.469-12.214 12.214-12.214 6.746 0 12.214 5.468 12.214 12.214 0 6.745-5.468 12.214-12.214 12.214z" fill="#F6F6F5" stroke="#F6F6F5" stroke-width="7" stroke-linecap="round" stroke-linejoin="round"/><path transform="matrix(-1 0 0 1 237.178 272.364)" stroke="#F6F6F5" stroke-width="7" stroke-linecap="round" d="M3.5 -3.5L109.555 -3.5"/><path transform="matrix(-1 0 0 1 380.606 147.497)" stroke="#F6F6F5" stroke-width="7" stroke-linecap="round" d="M3.5 -3.5L139.928 -3.5"/></svg>

<svg width="536" height="536" viewBox="0 0 536 536" fill="none" xmlns="http://www.w3.org/2000/svg">
<path d="M385.056 178.881L387.488 176.364L386.47 175.381H385.056V178.881ZM402.801 196.029L400.369 198.545L400.369 198.545L402.801 196.029ZM410.183 178.881V175.381H406.683V178.881H410.183ZM210.305 120.499C210.305 114.977 214.781 110.5 220.304 110.5V103.5C210.915 103.5 203.305 111.111 203.305 120.499H210.305ZM210.305 165.382V120.499H203.305V165.382H210.305ZM220.304 175.381C214.781 175.381 210.305 170.905 210.305 165.382H203.305C203.305 174.771 210.915 182.381 220.304 182.381V175.381ZM385.056 175.381H220.304V182.381H385.056V175.381ZM405.233 193.512L387.488 176.364L382.624 181.398L400.369 198.545L405.233 193.512ZM406.683 193.002C406.683 193.216 406.626 193.34 406.565 193.426C406.493 193.527 406.371 193.632 406.2 193.702C406.029 193.773 405.852 193.79 405.7 193.764C405.566 193.741 405.407 193.68 405.233 193.512L400.369 198.545C405.247 203.259 413.683 200.036 413.683 193.002H406.683ZM406.683 178.881V193.002H413.683V178.881H406.683ZM433.565 175.381H410.183V182.381H433.565V175.381ZM443.564 165.382C443.564 170.905 439.088 175.381 433.565 175.381V182.381C442.954 182.381 450.564 174.771 450.564 165.382H443.564ZM443.564 120.499V165.382H450.564V120.499H443.564ZM433.565 110.5C439.088 110.5 443.564 114.977 443.564 120.499H450.564C450.564 111.111 442.954 103.5 433.565 103.5V110.5ZM220.304 110.5H433.565V103.5H220.304V110.5Z" fill="#F6F6F5"/>
<path d="M151.54 304.592L149.108 302.075L150.125 301.092H151.54V304.592ZM133.794 321.739L136.226 324.256L136.226 324.256L133.794 321.739ZM126.412 304.592V301.092H129.912V304.592H126.412ZM326.291 246.21C326.291 240.687 321.814 236.211 316.291 236.211V229.211C325.68 229.211 333.291 236.821 333.291 246.21H326.291ZM326.291 291.093V246.21H333.291V291.093H326.291ZM316.291 301.092C321.814 301.092 326.291 296.615 326.291 291.093H333.291C333.291 300.481 325.68 308.092 316.291 308.092V301.092ZM151.54 301.092H316.291V308.092H151.54V301.092ZM131.362 319.222L149.108 302.075L153.972 307.109L136.226 324.256L131.362 319.222ZM129.912 318.712C129.912 318.927 129.97 319.051 130.03 319.136C130.102 319.238 130.224 319.343 130.396 319.413C130.567 319.483 130.743 319.5 130.895 319.475C131.03 319.452 131.188 319.39 131.362 319.222L136.226 324.256C131.349 328.969 122.912 325.747 122.912 318.712H129.912ZM129.912 304.592V318.712H122.912V304.592H129.912ZM103.03 301.092H126.412V308.092H103.03V301.092ZM93.0309 291.093C93.0309 296.615 97.5076 301.092 103.03 301.092V308.092C93.6416 308.092 86.0309 300.481 86.0309 291.093H93.0309ZM93.0309 246.21V291.093H86.0309V246.21H93.0309ZM103.03 236.211C97.5076 236.211 93.0309 240.687 93.0309 246.21H86.0309C86.0309 236.821 93.6416 229.211 103.03 229.211V236.211ZM316.291 236.211H103.03V229.211H316.291V236.211Z" fill="#F6F6F5"/>
<circle r="40.3997" transform="matrix(-1 0 0 1 130.9 385.447)" stroke="#F6F6F5" stroke-width="7"/>
<path d="M106.826 415.101V410.681C106.826 407.442 108.112 404.335 110.403 402.045C112.694 399.754 115.8 398.467 119.04 398.467H143.468C146.707 398.467 149.814 399.754 152.104 402.045C154.395 404.335 155.682 407.442 155.682 410.681V415.101" stroke="#F6F6F5" stroke-width="7" stroke-linecap="round" stroke-linejoin="round"/>
<path d="M106.405 414.709V410.289C106.405 407.05 107.692 403.943 109.983 401.652C112.273 399.362 115.38 398.075 118.619 398.075H143.047C146.287 398.075 149.393 399.362 151.684 401.652C153.974 403.943 155.261 407.05 155.261 410.289V414.709" fill="#F6F6F5"/>
<path d="M106.405 414.709V410.289C106.405 407.05 107.692 403.943 109.983 401.652C112.273 399.362 115.38 398.075 118.619 398.075H143.047C146.287 398.075 149.393 399.362 151.684 401.652C153.974 403.943 155.261 407.05 155.261 410.289V414.709L152.808 419.167L141.84 423.386L131.294 425.073L121.17 423.386L113.577 420.433L106.405 414.709Z" fill="#F6F6F5"/>
<path d="M106.405 414.709V410.289C106.405 407.05 107.692 403.943 109.983 401.652C112.273 399.362 115.38 398.075 118.619 398.075H143.047C146.287 398.075 149.393 399.362 151.684 401.652C153.974 403.943 155.261 407.05 155.261 410.289V414.709" stroke="#F6F6F5" stroke-width="7" stroke-linecap="round" stroke-linejoin="round"/>
<path d="M106.405 414.709V410.289C106.405 407.05 107.692 403.943 109.983 401.652C112.273 399.362 115.38 398.075 118.619 398.075H143.047C146.287 398.075 149.393 399.362 151.684 401.652C153.974 403.943 155.261 407.05 155.261 410.289V414.709L152.808 419.167L141.84 423.386L131.294 425.073L121.17 423.386L113.577 420.433L106.405 414.709Z" stroke="#F6F6F5" stroke-width="7" stroke-linecap="round" stroke-linejoin="round"/>
<path d="M131.254 386.253C124.508 386.253 119.04 380.785 119.04 374.039C119.04 367.294 124.508 361.825 131.254 361.825C137.999 361.825 143.468 367.294 143.468 374.039C143.468 380.785 137.999 386.253 131.254 386.253Z" fill="#F6F6F5" stroke="#F6F6F5" stroke-width="7" stroke-linecap="round" stroke-linejoin="round"/>
<path d="M381.45 292.373V287.953C381.45 284.714 382.736 281.607 385.027 279.316C387.318 277.026 390.424 275.739 393.664 275.739H418.092C421.331 275.739 424.438 277.026 426.728 279.316C429.019 281.607 430.306 284.714 430.306 287.953V292.373" fill="#F6F6F5"/>
<path d="M381.45 292.373V287.953C381.45 284.714 382.736 281.607 385.027 279.316C387.318 277.026 390.424 275.739 393.664 275.739H418.092C421.331 275.739 424.438 277.026 426.728 279.316C429.019 281.607 430.306 284.714 430.306 287.953V292.373L426.728 295.566L416.885 301.05L406.339 302.737L396.214 301.05L388.621 298.097L381.45 292.373Z" fill="#F6F6F5"/>
<path d="M381.45 292.373V287.953C381.45 284.714 382.736 281.607 385.027 279.316C387.318 277.026 390.424 275.739 393.664 275.739H418.092C421.331 275.739 424.438 277.026 426.728 279.316C429.019 281.607 430.306 284.714 430.306 287.953V292.373" stroke="#F6F6F5" stroke-width="7" stroke-linecap="round" stroke-linejoin="round"/>
<path d="M381.45 292.373V287.953C381.45 284.714 382.736 281.607 385.027 279.316C387.318 277.026 390.424 275.739 393.664 275.739H418.092C421.331 275.739 424.438 277.026 426.728 279.316C429.019 281.607 430.306 284.714 430.306 287.953V292.373L426.728 295.566L416.885 301.05L406.339 302.737L396.214 301.05L388.621 298.097L381.45 292.373Z" stroke="#F6F6F5" stroke-width="7" stroke-linecap="round" stroke-linejoin="round"/>
<circle r="40.3997" transform="matrix(-1 0 0 1 405.1 262.267)" stroke="#F6F6F5" stroke-width="7"/>
<path d="M381.026 291.921V287.501C381.026 284.262 382.313 281.155 384.604 278.865C386.894 276.574 390.001 275.287 393.24 275.287H417.668C420.908 275.287 424.014 276.574 426.305 278.865C428.595 281.155 429.882 284.262 429.882 287.501V291.921" stroke="#F6F6F5" stroke-width="7" stroke-linecap="round" stroke-linejoin="round"/>
<path d="M405.454 263.074C398.709 263.074 393.24 257.605 393.24 250.86C393.24 244.114 398.709 238.646 405.454 238.646C412.2 238.646 417.668 244.114 417.668 250.86C417.668 257.605 412.2 263.074 405.454 263.074Z" fill="#F6F6F5" stroke="#F6F6F5" stroke-width="7" stroke-linecap="round" stroke-linejoin="round"/>
<line x1="3.5" y1="-3.5" x2="109.555" y2="-3.5" transform="matrix(-1 0 0 1 237.178 272.364)" stroke="#F6F6F5" stroke-width="7" stroke-linecap="round"/>
<line x1="3.5" y1="-3.5" x2="139.928" y2="-3.5" transform="matrix(-1 0 0 1 380.606 147.497)" stroke="#F6F6F5" stroke-width="7" stroke-linecap="round"/>
</svg>
